!!!!SEGMENT: Ver3006-Leggiadre_rime_et_voi.krn
!!!id: Ver3006
!!!AGN: Madrigal
!!!voices: 4
!!!COM: Philippe Verdelot
!!!OTL: Leggiadre rime et voi
**kern	**kern	**kern	**kern
*part4	*part3	*part2	*part1
*staff4	*staff3	*staff2	*staff1
*I"Bassus	*I"Tenor	*I"Altus	*I"Superius
*I'B	*I'T	*I'A	*I'S
*clefF4	*clefGv2	*clefG2	*clefG2
*k[]	*k[]	*k[]	*k[]
*C:	*C:	*C:	*C:
*M2/1	*M2/1	*M2/1	*M2/1
*met(C|)	*met(C|)	*met(C|)	*met(C|)
1D	1d	1A	1a
2D	2f	2d	2a
2A	2e	2c	2a
=1	=1	=1	=1
1D	1d	1f	1a
1A	1c	1e	1a
=2	=2	=2	=2
1D	1f	2d	2r
.	.	1a	2dd
2A	2e	.	2cc
2A	2e	2a	2cc
=3	=3	=3	=3
2.d	2f	2a	2dd
.	2f	2a	2dd
4d	.	.	.
1G	1g	1b	1dd
=4	=4	=4	=4
2A	2e	2a	2cc
2A	2a	2e	2cc
2D	2a	2d	2ff
2F	2a	2c	2ff
=5	=5	=5	=5
2.C	2.g	4c	2.ee
.	.	4d	.
.	.	4e	.
4D	4f	4f	4dd
4E	2e	2g	2cc
4F	.	.	.
[2G	[2d	[2g	[2b
=6	=6	=6	=6
4G]	4d]	4g]	2b]
4A	4c	4f	.
2F	4B	4e	1a
.	4A	4d	.
1E	1B	1e	.
.	.	.	2g#i
=7	=7	=7	=7
2F	2A	2c	1a
2D	2d	2f	.
2AA	2d	2f	1r
2A	2c	2e	.
=8	=8	=8	=8
2F	1d	4f	2r
.	.	4g	.
2D	.	1a	2dd
1A	1e	.	2dd
.	.	2a	2cc
=9	=9	=9	=9
1D	1f	2r	1dd
.	.	2d	.
1r	2e	2d	1a
.	2e	2c	.
=10	=10	=10	=10
2r	2.d	1d	2r
2d	.	.	1ff
.	4e	.	.
2d	4f	1A	.
.	4g	.	.
2c	2a	.	[2ee
=11	=11	=11	=11
1d	2f	2r	2ee]
.	2d	2a	2.dd
1A	1e	2a	.
.	.	.	8cc#iL
.	.	.	8bJ
.	.	2a	2cc#i
=12	=12	=12	=12
1D	1d	1f	1dd
1F	2r	1f	1a
.	2c	.	.
=13	=13	=13	=13
1F	2c	2r	2r
.	2d	2f	2a
2F	2c	2f	2a
2F	2A	2f	2a
=14	=14	=14	=14
1G	4B	2d	2.g
.	4c	.	.
.	1d	2d	.
.	.	.	4f
1A	.	1a	1e
.	2c#i	.	.
=15	=15	=15	=15
1D	1d	1f	1d
2r	2r	2r	2r
2G	2B	2g	2d
=16	=16	=16	=16
2G	2B	2g	2d
2G	2B	2g	2d
2D	2A	2f	2d
2G	2B	4g	2d
.	.	4f	.
=17	=17	=17	=17
2C	2c	4e	0g
.	.	4d	.
2D	4B	2.d	.
.	4A	.	.
1E	1G	.	.
.	.	8c#iL	.
.	.	8BJ	.
.	.	2c#i	.
=18	=18	=18	=18
0D	0A	0d	0f#X
=19	=19	=19	=19
1D	1d	1f	1a
2D	2d	2f	2a
2D	2d	2f	2a
=20	=20	=20	=20
2D	2f	2a	2.dd
2D	2f	2a	.
.	.	.	4cc
1G	1g	1d	1b
=21	=21	=21	=21
1D	1f	1d	1a
2r	2r	2r	2r
2D	2f	2a	2a
=22	=22	=22	=22
2A	2e	2a	2cc
2d	2f	2a	2dd
2c	2g	2e	2.ee
2d	2f	2a	.
.	.	.	4dd
=23	=23	=23	=23
1A	1e	1a	1cc
2r	2r	2r	2r
2A	2e	2a	2cc
=24	=24	=24	=24
2A	2e	2a	2cc
2A	2e	2a	2cc
1D	1f	1a	1dd
=25	=25	=25	=25
2A	2e	2a	2cc
2A	2c	2f	2a
2G	2d	2g	2b
2G	2d	2G	2dd
=26	=26	=26	=26
2F	2d	1A	4dd
.	.	.	4cc
2F	2d	.	4b
.	.	.	4a
[1E	2e	1B	2g
.	4d	.	[2a
.	4c	.	.
=27	=27	=27	=27
1E]	4B	1e	2a]
.	4A	.	.
.	2B	.	2g#i
1AA	1A	1e	1a
=28	=28	=28	=28
2r	2r	2r	2r
1A	1c	1e	1a
[2D	[2f	[2d	[2a
=29	=29	=29	=29
2D]	2f]	2d]	2a]
2F	2f	2c	2a
2C	2e	2c	2g
2D	[2d	2A	2f
=30	=30	=30	=30
1AA	2d]	1A	1e
.	2c	.	.
1D	1d	1A	2d
.	.	.	[2a
=31	=31	=31	=31
2F	2c	2A	2a]
2F	2c	2A	2a
1G	1B	1d	1g
=32	=32	=32	=32
1D	1A	1d	1f
2r	2r	2r	2r
2D	2A	2d	2f
=33	=33	=33	=33
2D	2A	2d	2f
2D	2A	2d	2f
1C	1c	1e	1g
=34	=34	=34	=34
1G	1B	1d	1g
2C	2c	2e	2g
2C	2c	2e	2g
=35	=35	=35	=35
2G	2B	2d	2g
2F	2c	2f	1a
1E	1G	2g	.
.	.	2c	[2g
=36	=36	=36	=36
1D	1A	1d	4g]
.	.	.	8f#iL
.	.	.	8eJ
.	.	.	2f#i
1G	1B	1d	1g
=37	=37	=37	=37
2r	2r	2r	2r
2G	2B	2d	2g
2G	2B	2d	2g
2G	2B	2d	2g
=38	=38	=38	=38
2C	2c	2e	2g
2C	2c	2e	2g
1F	1c	1f	1a
=39	=39	=39	=39
2.c	2e	2r	1g
.	4c	2c	.
4B	4d	.	.
2A	4e	2c	2a
.	4f	.	.
2G	2g	2d	2b
=40	=40	=40	=40
1A	2.e	1c	1cc
.	4f	.	.
1G	1g	2d	1b
.	.	2e	.
=41	=41	=41	=41
1r	0r	2g	2r
.	.	2g	2b
2r	.	2d	2dd
2B	.	2d	2dd
=42	=42	=42	=42
2d	0r	1f	2a
2d	.	.	2a
2A	.	2.c	1cc
2A	.	.	.
.	.	4d	.
=43	=43	=43	=43
1c	0r	1e	1g
1G	.	1d	2r
.	.	.	[2g
=44	=44	=44	=44
2C	2c	2e	2g]
2G	2B	2d	2g
1C	1c	1e	1g
=45	=45	=45	=45
1G	1B	1d	1g
2r	2r	2r	2r
2A	2c	2a	2e
=46	=46	=46	=46
2A	2c	2a	2e
2A	2c	2a	2e
2A	2c	2a	2e
2A	2c	2a	2e
=47	=47	=47	=47
1D	1d	1a	1f
1A	1c	1a	1e
=48	=48	=48	=48
2r	2r	2r	2r
2D	2d	2f	2a
2D	2f	2d	2a
2D	2f	2d	2a
=49	=49	=49	=49
1F	1f	1c	1a
2C	1e	1c	1g
[2c	.	.	.
=50	=50	=50	=50
4c]	2e	4c	2.cc
4B	.	4d	.
2A	2c	4e	.
.	.	4f	4cc
2G	2d	2g	2b
2F	2A	2d	[2a
=51	=51	=51	=51
1E	1B	1e	4a]
.	.	.	8g#iL
.	.	.	8f#iJ
.	.	.	2g#i
1A	1A	1e	1a
=52	=52	=52	=52
2r	2r	2r	2r
2G	2d	2g	2b
2G	2d	2g	2b
2G	2d	2g	2b
=53	=53	=53	=53
2E	2e	2g	2b
2E	2e	2g	2b
1A	1e	1a	1cc
=54	=54	=54	=54
2E	2e	2g	2b
2E	2e	2g	2b
2G	2d	2g	2b
2G	2d	2g	2b
=55	=55	=55	=55
1A	1c	1e	1a
1E	1B	1e	1g
=56	=56	=56	=56
2AA	2.e	2c	2.cc
2E	.	2g	.
.	4d	.	4b
2AA	4c	2e	2a
.	4A	.	.
2C	2e	2c	2g
=57	=57	=57	=57
1D	1d	1A	1f
1AA	1c	1A	1e
=58	=58	=58	=58
2r	2r	2r	2r
2AA	2c	2A	2e
2AA	2c	2A	2e
2C	2c	2G	2e
=59	=59	=59	=59
2F	2c	2A	2a
2C	2e	2c	2g
1D	1d	1A	1f
=60	=60	=60	=60
1AA	1c	1A	1e
2r	2r	2r	2r
2AA	2c	2A	2e
=61	=61	=61	=61
3%2AA	3%2c	3%2A	3%2e
3C	3c	3A	3e
3%2C	3%2c	3%2G	3%2e
3C	3c	3G	3e
=62	=62	=62	=62
3%2C	3%2e	3%2c	3%2g
3C	3e	3c	3g
3%2F	3c	3%2c	3%2a
.	3f	.	.
3C	3e	3c	3g
=63	=63	=63	=63
3D	3.d	3%2A	3f
3%2AA	.	.	3%2e
.	12c#iL	.	.
.	12BJ	.	.
.	3c#i	3a	.
1D	1d	1f	1d
=64	=64	=64	=64
2r	2r	2r	2r
2D	2d	2f	2a
2D	2d	2f	2a
2D	2d	2f	2a
=65	=65	=65	=65
2.d	2f	2d	2a
.	2f	2.a	2a
4c	.	.	.
1B	1d	.	1dd
.	.	8g#iL	.
.	.	8f#iJ	.
.	.	2g#i	.
=66	=66	=66	=66
1A	1e	1a	1cc
2r	2r	2r	2r
2A	2e	2a	2cc
=67	=67	=67	=67
2A	2e	2a	2cc
2A	2e	2a	2cc
2A	2e	2a	2cc
2A	2e	2a	2cc
=68	=68	=68	=68
1D	1f	1a	1dd
1A	1e	1a	1cc
=69	=69	=69	=69
1A	1c	2.e	1a
.	.	4f	.
2G	2d	2g	2b
2E	2e	2g	[2cc
=70	=70	=70	=70
1F	1A	2c	4cc]
.	.	.	4b
.	.	2d	2.a
1E	1B	1e	.
.	.	.	8g#iL
.	.	.	8f#iJ
.	.	.	2g#i
=71	=71	=71	=71
1AA	1A	1c	1a
[1F	[1f	[1c	[1a
=72	=72	=72	=72
1F]	1f]	1c]	1a]
2C	2e	2c	2g
2D	[2d	2A	2f
=73	=73	=73	=73
1AA	4d]	1A	1e
.	8c#iL	.	.
.	8BJ	.	.
.	2c#i	.	.
2D	2d	2A	2d
2D	2d	2F	2a
=74	=74	=74	=74
2G	2d	2G	2b
2F	2d	2A	2a
1G	1d	1B	1g
=75	=75	=75	=75
1D	1d	1A	1f#X
2r	2r	2r	2r
2D	2f	2d	2a
=76	=76	=76	=76
2D	2f	2d	2.dd
2D	2f	2d	.
.	.	.	4cc
2G	2g	2d	2b
2D	2f	2d	2a
=77	=77	=77	=77
1G	1g	1d	1b
1D	1f#X	1d	1a
=78	=78	=78	=78
2r	2r	2r	2r
2D	2f	2d	2a
2D	2f	2d	2a
2D	2f	2d	2a
=79	=79	=79	=79
2G	2g	2d	2b
2A	2e	2a	2cc
1D	1f	1a	1dd
=80	=80	=80	=80
1A	1e	1a	1cc
2.D	2.f	2.A	2r
.	.	.	[2a
4E	4e	4G	.
=81	=81	=81	=81
2F	4c	4A	2a]
.	4d	4B	.
1C	1e	1c	1g
2D	[2d	2A	2f
=82	=82	=82	=82
1AA	4d]	2A	1e
.	8c#iL	.	.
.	8BJ	.	.
.	2c#i	2a	.
1D	1d	2f	1d
.	.	2d	.
=83	=83	=83	=83
1D	1r	2.f	2r
.	.	.	2d
.	.	4g	.
2D	2r	1a	2.f
2D	2d	.	.
.	.	.	4g
=84	=84	=84	=84
2D	2f	1d	2a
2G	2g	.	2b
1F	2a	2f	1cc
.	2a	2f	.
=85	=85	=85	=85
1G	2.g	1d	1b
.	4f	.	.
2A	2e	2c	2a
2A	2c	[2e	[2a
=86	=86	=86	=86
1B	1d	2e]	4a]
.	.	.	8g#iL
.	.	.	8f#iJ
.	.	2d	2g#i
2A	2e	2c	1a
[2D	[2f	[2d	.
=87	=87	=87	=87
2D]	2f]	2d]	1a
2C	2.e	2e	.
1D	.	2f	2a
.	4d	.	.
.	[2d	2d	2a
=88	=88	=88	=88
1A	4d]	1e	1a
.	8c#iL	.	.
.	8BJ	.	.
.	2c#i	.	.
1D	[1d	[1f	[1al
=89	=89	=89	=89
4D	1d]	1f]	0a_
4E	.	.	.
4F	.	.	.
4G	.	.	.
[1Al	[1c#Xl	[1el	.
=90	=90	=90	=90
00A]	00c#]	00e]	00a]
==	==	==	==
*-	*-	*-	*-
!!!system-decoration: [*]
!!!RDF**kern: i = editorial accidental
!!!RDF**kern: l = terminal long
!!!ENC: Benjamin Ory
!!!END: 2024/4/2
!!!EED: Benjamin Ory
!!!EEV: 2024/04/02
!!!YEC: Copyright 2024 Benjamin Ory, All Rights Reserved
!!!ONB: Translated from MusicXML on 2024/04/02
